build/category/BankSolid.svg

<svg xmlns="http://www.w3.org/2000/svg" fill="none" viewBox="0 0 24 24" focusable="false"><path d="M0 0H24V24H0z"/><path fill="#74767B" fill-rule="evenodd" d="M11.2682 3.23119C11.7099 2.9502 12.2743 2.94994 12.7163 3.23051L19.4331 7.49431C20.574 8.21856 20.061 9.98406 18.7096 9.98406L5.28992 9.98406C3.93919 9.98406 3.42566 8.21996 4.56534 7.49499L11.2682 3.23119ZM8.28248 11.9225C8.28248 11.5635 7.99147 11.2725 7.63248 11.2725C7.2735 11.2725 6.98248 11.5635 6.98248 11.9225L6.98248 16.805C6.98248 17.164 7.2735 17.455 7.63248 17.455C7.99147 17.455 8.28248 17.164 8.28248 16.805L8.28248 11.9225ZM11.9997 11.2725C12.3587 11.2725 12.6497 11.5635 12.6497 11.9225L12.6497 16.805C12.6497 17.164 12.3587 17.455 11.9997 17.455C11.6407 17.455 11.3497 17.164 11.3497 16.805L11.3497 11.9225C11.3497 11.5635 11.6407 11.2725 11.9997 11.2725ZM17.017 11.9225C17.017 11.5635 16.726 11.2725 16.367 11.2725C16.0081 11.2725 15.717 11.5635 15.717 11.9225L15.717 16.805C15.717 17.164 16.0081 17.455 16.367 17.455C16.726 17.455 17.017 17.164 17.017 16.805L17.017 11.9225ZM4.63663 18.7501C4.27765 18.7501 3.98663 19.0411 3.98663 19.4001C3.98663 19.7591 4.27765 20.0501 4.63663 20.0501L19.3628 20.0501C19.7218 20.0501 20.0128 19.7591 20.0128 19.4001C20.0128 19.0411 19.7218 18.7501 19.3628 18.7501L4.63663 18.7501Z"/></svg>

<svg xmlns="http://www.w3.org/2000/svg" fill="none" viewBox="0 0 24 24" focusable="false"><path fill="#74767B" fill-rule="evenodd" d="M12.71 3.23c-.44-.29-1-.28-1.45 0l-6.7 4.26c-1.14.72-.63 2.49.73 2.49H18.7c1.36 0 1.87-1.77.73-2.49zm-4.43 8.69c0-.36-.29-.65-.65-.65s-.65.29-.65.65v4.88c0 .36.29.65.65.65s.65-.29.65-.65zm3.71-.65c.36 0 .65.29.65.65v4.88c0 .36-.29.65-.65.65-.35 0-.65-.29-.65-.65v-4.88c0-.36.3-.65.65-.65m5.02.65c0-.36-.29-.65-.65-.65s-.65.29-.65.65v4.88c0 .36.29.65.65.65s.65-.29.65-.65zM4.63 18.75c-.36 0-.65.29-.65.65 0 .35.29.65.65.65h14.73c.36 0 .65-.3.65-.65 0-.36-.29-.65-.65-.65z"/></svg>
